X: 8
T:Pany Corlan yr Wyn
% Nottingham Music Database
S:Eric
M:4/4
L:1/4
K:G
P:A
D|"G"GG/2A/2 BG|"Am"cA/2B/2 "D7"cA|"G"BG GB|"D7"dA FD|
"G"GG/2A/2 BG|"Am"cA/2B/2 "D7"cA|"G"BG "D7"F/2G/2A/2F/2|"G"GG G:|
P:B
d/2c/2|"G"Bd "Em"dc/2B/2|"Am"A/2B/2c/2d/2 "D7"cB/2A/2|"G"GB "Em"BA/2G/2|\
"D7"F/2G/2A/2B/2 AD|
"G"GG/2A/2 BG|"Am"cA/2B/2 "D7"cA|"G"BG "D7"F/2G/2A/2F/2|"G"GG G:|
P:full B
d/2c/2|"G"Bd "Em"dc/2B/2|"Am"A/2B/2c/2d/2 "D7"cB/2A/2|"G"GB "Em"BA/2G/2|
"D7"F/2G/2A/2B/2 AD|"G"GG/2A/2 BG|"Am"cA/2B/2 "D7"cA|"G"BG GB|"D7"dA FD|
"G"GG/2A/2 BG|"Am"cA/2B/2 "D7"cA|"G"BG "D7"F/2G/2A/2F/2|"G"GG G:|<end>
<start>
